DVA
CUT[Muede kehrt ein Wandersmann zurueck
    nach der Heimat seiner Liebe Glueck]
REG[Europa, Mitteleuropa, Deutschland, Hessen, Hanauer Kinzigtal,
    Langenselbold]
KEY[D1008  08  G 4/4]
MEL[-51  3_.21-713  -5__0_
    -51  2_.1-7265  3__0_
    12  3_5_4321  -6__0_
    1-6  -5_.1-7265  3__0_
    12  3_5_4321  -6__0_
    1-6  -5_.1-7265  3__0_ //] >>
FCT[Liebes - Lied]
CMT[DVA-Signatur A 46 222]
